src/lib/packages/icons/src/assets/filled/stopwatch-minus-alt.svg

<svg width="24" height="24" viewBox="0 0 24 24" fill="none" xmlns="http://www.w3.org/2000/svg">
<path d="M7.24989 3C7.24989 2.586 7.58589 2.25 7.99989 2.25H12.9999C13.4139 2.25 13.7499 2.586 13.7499 3C13.7499 3.414 13.4139 3.75 12.9999 3.75H7.99989C7.58589 3.75 7.24989 3.414 7.24989 3ZM12.4999 17V19C12.4999 19.496 12.5529 19.959 12.6539 20.379C12.6919 20.538 12.6049 20.6989 12.4469 20.7419C11.6759 20.9499 10.8678 21.039 10.0118 20.984C6.57185 20.766 3.63383 18.123 3.09583 14.718C2.35783 10.039 5.95989 5.99902 10.4999 5.99902C12.1719 5.99902 13.7138 6.55103 14.9608 7.47803L16.4699 5.96899C16.7599 5.67899 17.2399 5.67899 17.5299 5.96899C17.8199 6.25899 17.8199 6.73905 17.5299 7.02905L16.07 8.48901C16.977 9.49801 17.6199 10.7509 17.8739 12.1429C17.9079 12.3269 17.7579 12.499 17.5709 12.499H16.9999C14.5149 12.5 12.4999 14.515 12.4999 17ZM11.2499 10C11.2499 9.586 10.9139 9.25 10.4999 9.25C10.0859 9.25 9.74989 9.586 9.74989 10V13.5C9.74989 13.914 10.0859 14.25 10.4999 14.25C10.9139 14.25 11.2499 13.914 11.2499 13.5V10ZM21.9999 17V19C21.9999 21 20.9999 22 18.9999 22H16.9999C14.9999 22 13.9999 21 13.9999 19V17C13.9999 15 14.9999 14 16.9999 14H18.9999C20.9999 14 21.9999 15 21.9999 17ZM19.7499 18C19.7499 17.724 19.5259 17.5 19.2499 17.5H16.7499C16.4739 17.5 16.2499 17.724 16.2499 18C16.2499 18.276 16.4739 18.5 16.7499 18.5H19.2499C19.5259 18.5 19.7499 18.276 19.7499 18Z" fill="currentColor"/>
</svg>

<svg xmlns="http://www.w3.org/2000/svg" width="24" height="24" fill="none"><path fill="currentColor" d="M7.25 3A.75.75 0 0 1 8 2.25h5a.75.75 0 0 1 0 1.5H8A.75.75 0 0 1 7.25 3Zm5.25 14v2c0 .496.053.959.154 1.379a.298.298 0 0 1-.207.363 7.438 7.438 0 0 1-2.435.242c-3.44-.218-6.378-2.861-6.916-6.266A7.507 7.507 0 0 1 10.5 5.999c1.672 0 3.214.552 4.46 1.479l1.51-1.509c.29-.29.77-.29 1.06 0 .29.29.29.77 0 1.06l-1.46 1.46a7.471 7.471 0 0 1 1.804 3.654.307.307 0 0 1-.303.356H17A4.502 4.502 0 0 0 12.5 17Zm-1.25-7a.75.75 0 0 0-1.5 0v3.5a.75.75 0 0 0 1.5 0V10ZM22 17v2c0 2-1 3-3 3h-2c-2 0-3-1-3-3v-2c0-2 1-3 3-3h2c2 0 3 1 3 3Zm-2.25 1a.5.5 0 0 0-.5-.5h-2.5a.5.5 0 0 0 0 1h2.5a.5.5 0 0 0 .5-.5Z"/></svg>
